X:1
T:O fly not, love
T:O fly not, love
T:Thomas Morley (1557-1603)
T:Thomas Bateson (1575-1630)
C:Thomas Morley (1557-1603)
%%score [ 1 2 3 ]
L:1/8
Q:1/2=60
M:4/4
K:F
V:1 treble nm="Soprano"
V:2 treble nm="Alto"
V:3 bass nm="Bass"
V:1
 c8 | c4 d4 | c4 c2 B2- | B2 A2 G4 | A2 A B c4- | c2 B A G2 F2 | G8 | G2 G A B4 | z2 B c d4- | %9
w: O|fly not,|love, O do|_ not fly|me, Stay a- while,|_ but a- while, O|stay|thee, stay a- while,|stay a- while,|
 d2 c B A2 B2 | c2 B A G2 c2 | B2 A2 A2 GF | G8 |1 F8 :|2 F8 || z2 f2 f _e d c | B2 c2 d2 d2 | %17
w: _ but a- while, O|stay but a- while, my|dar- ling sweet, O _|stay|thee.|thee.|Hear Co- ry- don com-|plain- * ing, His|
 c2 BA G2 F2 | G4 G2 c2 | B2 A2 G4 | A4 z4 |: z2 f2 _e2 d2 | c3 d B2 c2 | d4 d2 d2 | cB AG A4 | %25
w: grief through _ thy dis-|dain- ing, through|thy dis- dain-|ing;|O do not|thus un- friendl- ly|use me, Nor|yet _ a- * buse|
 G4 z2 _e2 | d2 c2 B4 | A4 z2 c2 | d2 e2 f2 d2 | e2 f4 e2 | f4 z2 c2- | c2 B4 A2 | G2 B2 G3 A | %33
w: me, To|kiss me _|once, to|kiss me once, to|kiss me but|once, And|_ so re-|fuse, and so re-|
 F3 F G4 |1 F8 :|2 F8 |] %36
w: fuse, re- fuse|me.|me.|
V:2
 A8 | A4 B4 | A4 A2 G2- | G2 F2 E4 | F2 F G A4- | A2 G F E2 F2 | E8 | E2 _E F G4 | z2 D =E F4 | %9
w: O|fly not,|love, O do|_ not fly|me, Stay a- while,|_ but a- while, O|stay|thee, stay a- while,|stay a- while,|
 z2 F4 G2 | A2 G F E2 F2 | D2 E2 F4- | F2 ED E4 |1 F8 :|2 F2 c2 c B A G || A2 F c d c B A | %16
w: stay a-|while, but a- while, my|dar- ling sweet,|_ O _ stay|thee.|thee. Hear Co- ry- don com-|plain- ing, Hear Co- ry- don com-|
 G2 A2 B2 B2 | A2 GF E2 F2 | E4 E2 A2 | G F F4 E2 | F2 c2 B2 A2 |: G2 F2 GA BG | A3 B G2 A2 | %23
w: plain- * ing, His|grief through _ thy dis-|dain- ing, through|thy dis- dain- *|ing; O do not|thus, O do _ not _|thus un- friendl- ly|
 B4 B2 B2 | A G G4 ^F2 | G2 B2 A2 G2- | G F F4 E2 | F3 GAB c2 | =B2 c4 B2 | c2 A2 G4 | F2 cB AGFG | %31
w: use me, Nor|yet a- buse _|me, To kiss me,|_ to kiss me|once, _ _ _ to|kiss me but|once, but _|once, And _ so, _ _ _|
 A2 G4 F2 | E2 G2 E3 F | D3 F E4 |1 F2 c2 B2 A2 :|2 F8 |] %36
w: and so re-|fuse, and so re-|fuse, re- fuse|me. O do not|me.|
V:3
 F,8 | F,4 B,,4 | F,4 C,2 _E,2- | E,2 F,2 C,4 | F,4 z2 F, G, | A,2 B,2 C2 D2 | C8 | C4 z2 G, A, | %8
w: O|fly not,|love, O do|_ not fly|me, Stay a-|while, a- while O|stay|thee, stay a-|
 B,4 z2 B,, C, | D,8 | C,6 A,,2 | B,,2 C,2 D,4 | C,8 |1 F,8 :|2 F,4 z2 F,2 || %15
w: while, but a-|while|stay, my|sweet, O _|stay|thee.|thee. Hear|
 F, _E, D, C, B,,2 B,,2 | _E,2 C,2 B,,2 G,,2 | A,,2 B,,2 C,2 D,2 | C,4 C,2 A,,2 | B,,2 F,2 C,4 | %20
w: Co- ry- don com- plain- ing,|com- plain- ing, His|grief through thy dis-|dain- ing, through|thy dis- dain-|
 F,4 z2 F,2 |: _E,2 D,2 C,2 B,,2 | F,3 D, _E,2 C,2 | B,,4 B,,2 B,,2 | C,2 _E,2 D,4 | G,4 z2 C2 | %26
w: ing; O|do not, do not|thus un- friendl- ly|use me, Nor|yet a- buse|me, To|
 B,2 A,2 G,4 | F,2 F,4 _E,2 | D,2 C,2 D,4 | C,4 z2 C2 | A,3 B, CB,A,G, | F,2 G,2 E,2 F,2 | %32
w: kiss me _|once, kiss me|once, but _|once, And|so re- fuse, _ _ _|_ and so re-|
 C,2 G,,2 C,3 A,, | B,,3 D, C,4 |1 F,4 z2 F,2 :|2 F,8 |] %36
w: fuse, and so re-|fuse, re- fuse|me. O|me.|

